images_elementary_svg/cmd/sc_duplicateslide.svg

<svg viewBox="0 0 16 16" xmlns="http://www.w3.org/2000/svg" xmlns:xlink="http://www.w3.org/1999/xlink"><linearGradient id="a" gradientTransform="matrix(.26423972 0 0 -.23508661 .152085 12.576766)" gradientUnits="userSpaceOnUse" x1="25.46862" x2="25.46862" y1="32.841259" y2="2.723591"><stop offset="0" stop-color="#90dbec"/><stop offset=".26238" stop-color="#55c1ec"/><stop offset=".704952" stop-color="#3689e6"/><stop offset="1" stop-color="#2b63a0"/></linearGradient><linearGradient id="b" gradientUnits="userSpaceOnUse" x1="5.833235" x2="5.594194" y1="2.532283" y2="13.294995"><stop offset="0" stop-color="#fff"/><stop offset=".45000002" stop-color="#fff" stop-opacity=".235294"/><stop offset=".65000004" stop-color="#fff" stop-opacity=".156863"/><stop offset="1" stop-color="#fff" stop-opacity=".392157"/></linearGradient>



     /&gt;
 <path d="m11.999987 1.988434c0 2.291507-.000891 9.999988-.000891 9.999988l-10.999096.01158v-10z" fill="#e9e9e9"/><path d="m1.5000129 11.500002v-9l9.9999741-.011568v9z" fill="none" stroke="#fff" stroke-linecap="round"/><path d="m12.500013 1.488396c0 2.520676-.000954 11.000063-.000954 11.000063l-11.9990718.01158v-11.000076z" fill="none" stroke="#8c8c8c" stroke-linejoin="round" stroke-width=".999922"/><path d="m14.994128 4.994235c0 2.291507-.000891 8.994187-.000891 8.994187l-10.993237.01158v-8.994199z" fill="#e9e9e9"/><path d="m4.5000129 13.500002v-7.994199l9.9941151-.011568v7.994199z" fill="none" stroke="#fff" stroke-linecap="round"/><path d="m15.494154 4.494197c0 2.520676-.000954 9.994262-.000954 9.994262l-11.9932128.01158v-9.994275z" fill="none" stroke="#8c8c8c" stroke-linejoin="round" stroke-width=".999922"/><path d="m4.1972475 3.4812663c-3.35515788 2.1649249-1.3398156 6.3173698 2.0789355 6.3173698v1.7200979l4.249674-3.2148613-4.249674-3.006046v1.8003238c-2.4120014.0894127-3.4664244-2.1062743-1.7420866-3.6168842z" display="block" fill="url(#a)"/><path d="m4.1501107 3.4072865c-3.41560759 2.2047897-1.3639548 6.4336967 2.1163916 6.4336967v1.7517708l4.3262397-3.2740578-4.3262397-3.0613992v1.8334748c-2.4554583.091059-3.5288789-2.145059-1.7734738-3.6834853z" fill="none" stroke="#2f78c8" stroke-linecap="round" stroke-linejoin="round" stroke-width=".814572"/><path d="m6.9830509 10.118644 2.3898305-1.779661-2.3728814-1.6949152-.0338983 1.0677966c-1.8056143.4230658-3.6011503-.5915067-3.881356-1.779661.0776316 2.7249143 2.1462682 3.3448629 3.9152543 3.2033898z" fill="none" stroke="url(#b)" stroke-width=".6"/></svg>

<?xml version="1.0" encoding="UTF-8" standalone="no"?>
<svg
   xmlns:dc="http://purl.org/dc/elements/1.1/"
   xmlns:cc="http://creativecommons.org/ns#"
   xmlns:rdf="http://www.w3.org/1999/02/22-rdf-syntax-ns#"
   xmlns:svg="http://www.w3.org/2000/svg"
   xmlns="http://www.w3.org/2000/svg"
   xmlns:xlink="http://www.w3.org/1999/xlink"
   xmlns:sodipodi="http://sodipodi.sourceforge.net/DTD/sodipodi-0.dtd"
   xmlns:inkscape="http://www.inkscape.org/namespaces/inkscape"
   id="svg3375"
   height="16"
   width="16"
   version="1.1"
   sodipodi:docname="sc_duplicateslide.svg"
   inkscape:version="0.92.3 (unknown)"
   inkscape:export-filename="/home/rizmut/Dokumen/Rizmut/Github/libreoffice-style-elementary/images_elementary/cmd/sc_duplicateslide.png"
   inkscape:export-xdpi="96"
   inkscape:export-ydpi="96">
  <sodipodi:namedview
     pagecolor="#ffffff"
     bordercolor="#666666"
     borderopacity="1"
     objecttolerance="10"
     gridtolerance="10"
     guidetolerance="10"
     inkscape:pageopacity="0"
     inkscape:pageshadow="2"
     inkscape:window-width="1366"
     inkscape:window-height="706"
     id="namedview58"
     showgrid="true"
     inkscape:zoom="14.75"
     inkscape:cx="18.018944"
     inkscape:cy="4.5611998"
     inkscape:window-x="0"
     inkscape:window-y="0"
     inkscape:window-maximized="1"
     inkscape:current-layer="svg3375"
     inkscape:snap-global="false">
    <inkscape:grid
       type="xygrid"
       id="grid930" />
  </sodipodi:namedview>
  <defs
     id="defs3377">
    <radialGradient
       gradientTransform="matrix(-0.25568731,0,0,-0.17604034,13.353337,17.657486)"
       gradientUnits="userSpaceOnUse"
       xlink:href="#linearGradient8662-6"
       id="radialGradient4123"
       fy="36.421127"
       fx="24.837126"
       r="15.644737"
       cy="36.421127"
       cx="24.837126" />
    <linearGradient
       id="linearGradient8662-6">
      <stop
         offset="0"
         style="stop-color:#000000;stop-opacity:1"
         id="stop8664-2" />
      <stop
         offset="1"
         style="stop-color:#000000;stop-opacity:0"
         id="stop8666-6" />
    </linearGradient>
    <linearGradient
       gradientTransform="matrix(0.27962938,0,0,-0.23975449,1.0220452,13.718559)"
       gradientUnits="userSpaceOnUse"
       xlink:href="#linearGradient3242-7-3-8-0-4-58-06"
       id="linearGradient4125"
       y2="2.7235911"
       x2="25.46862"
       y1="32.841259"
       x1="25.46862" />
    <linearGradient
       gradientTransform="matrix(0,0.28097453,0.327705,0,1.5205692,0.74757282)"
       gradientUnits="userSpaceOnUse"
       xlink:href="#linearGradient4087-7"
       id="linearGradient4130"
       y2="20.64884"
       x2="37.473785"
       y1="20.64884"
       x1="20.796995" />
    <linearGradient
       id="linearGradient4087-7">
      <stop
         offset="0"
         style="stop-color:#ffffff;stop-opacity:1"
         id="stop4089-5" />
      <stop
         offset="0.51153916"
         style="stop-color:#ffffff;stop-opacity:0.23529412"
         id="stop4091-6" />
      <stop
         offset="0.58522105"
         style="stop-color:#ffffff;stop-opacity:0.15686275"
         id="stop4093-9" />
      <stop
         offset="1"
         style="stop-color:#ffffff;stop-opacity:0.39215687"
         id="stop4095-8" />
    </linearGradient>
    <linearGradient
       gradientTransform="matrix(0.18918906,0,0,0.24324323,5.4591875,3.162165)"
       gradientUnits="userSpaceOnUse"
       xlink:href="#linearGradient3977-8"
       id="linearGradient3069"
       y2="20.735996"
       x2="43.257961"
       y1="21.745621"
       x1="-1.8462354" />
    <linearGradient
       id="linearGradient3977-8">
      <stop
         offset="0"
         style="stop-color:#ffffff;stop-opacity:1"
         id="stop3979-4" />
      <stop
         offset="0.46141714"
         style="stop-color:#ffffff;stop-opacity:0.23529412"
         id="stop3981-3" />
      <stop
         offset="1"
         style="stop-color:#ffffff;stop-opacity:0.15686275"
         id="stop3983-1" />
      <stop
         offset="1"
         style="stop-color:#ffffff;stop-opacity:0.39215687"
         id="stop3985-4" />
    </linearGradient>
    <linearGradient
       gradientTransform="matrix(0.25714449,0,0,0.23901336,3.8285322,2.897003)"
       gradientUnits="userSpaceOnUse"
       xlink:href="#linearGradient3600-4-4"
       id="linearGradient3072"
       y2="19.640921"
       x2="40.819557"
       y1="20.131714"
       x1="2.3263931" />
    <linearGradient
       id="linearGradient3600-4-4">
      <stop
         offset="0"
         style="stop-color:#f4f4f4;stop-opacity:1"
         id="stop3602-7-3" />
      <stop
         offset="1"
         style="stop-color:#dbdbdb;stop-opacity:1"
         id="stop3604-6-0" />
    </linearGradient>
    <linearGradient
       gradientTransform="matrix(0.20764335,0,0,0.2236809,19.105546,2.630629)"
       gradientUnits="userSpaceOnUse"
       xlink:href="#linearGradient3104-5-8"
       id="linearGradient3074"
       y2="29.123983"
       x2="-70.397194"
       y1="28.054304"
       x1="-22.237694" />
    <linearGradient
       id="linearGradient3104-5-8">
      <stop
         offset="0"
         style="stop-color:#a0a0a0;stop-opacity:1"
         id="stop3106-6-6" />
      <stop
         offset="1"
         style="stop-color:#bebebe;stop-opacity:1"
         id="stop3108-9-8" />
    </linearGradient>
    <linearGradient
       gradientTransform="matrix(0.18918906,0,0,0.24324323,1.4591872,0.16216496)"
       gradientUnits="userSpaceOnUse"
       xlink:href="#linearGradient3977-8-8"
       id="linearGradient3069-8"
       y2="18.56496"
       x2="48.547222"
       y1="19.401119"
       x1="12.53267" />
    <linearGradient
       id="linearGradient3977-8-8">
      <stop
         offset="0"
         style="stop-color:#ffffff;stop-opacity:1"
         id="stop3979-4-3" />
      <stop
         offset="0.14486206"
         style="stop-color:#ffffff;stop-opacity:0.23529412"
         id="stop3981-3-1" />
      <stop
         offset="1"
         style="stop-color:#ffffff;stop-opacity:0.15686275"
         id="stop3983-1-8" />
      <stop
         offset="1"
         style="stop-color:#ffffff;stop-opacity:0.39215687"
         id="stop3985-4-9" />
    </linearGradient>
    <linearGradient
       id="linearGradient3600-4-4-4">
      <stop
         offset="0"
         style="stop-color:#f4f4f4;stop-opacity:1"
         id="stop3602-7-3-3" />
      <stop
         offset="1"
         style="stop-color:#dbdbdb;stop-opacity:1"
         id="stop3604-6-0-3" />
    </linearGradient>
    <linearGradient
       id="linearGradient3104-5-8-8">
      <stop
         offset="0"
         style="stop-color:#a0a0a0;stop-opacity:1"
         id="stop3106-6-6-60" />
      <stop
         offset="1"
         style="stop-color:#bebebe;stop-opacity:1"
         id="stop3108-9-8-4" />
    </linearGradient>
    <linearGradient
       gradientTransform="matrix(0.25714449,0,0,0.23901336,-0.1714682,-0.10299704)"
       gradientUnits="userSpaceOnUse"
       xlink:href="#linearGradient3600-4-4-4"
       id="linearGradient3371"
       y2="47.013336"
       x2="25.132275"
       y1="0.98520643"
       x1="25.132275" />
    <linearGradient
       gradientTransform="matrix(0.20764335,0,0,0.2236809,15.105546,-0.36937104)"
       gradientUnits="userSpaceOnUse"
       xlink:href="#linearGradient3104-5-8-8"
       id="linearGradient3373"
       y2="2.9062471"
       x2="-51.786404"
       y1="50.786446"
       x1="-51.786404" />
    <linearGradient
       id="linearGradient3242-7-3-8-0-4-58-06">
      <stop
         offset="0"
         style="stop-color:#cdf87e;stop-opacity:1"
         id="stop3244-5-8-5-6-4-3-8" />
      <stop
         offset="0.26238"
         style="stop-color:#a2e34f;stop-opacity:1"
         id="stop3246-9-5-1-5-3-0-7" />
      <stop
         offset="0.66093999"
         style="stop-color:#68b723;stop-opacity:1"
         id="stop3248-7-2-0-7-5-35-9" />
      <stop
         offset="1"
         style="stop-color:#1d7e0d;stop-opacity:1"
         id="stop3250-8-2-8-5-6-40-4" />
    </linearGradient>
    <linearGradient
       id="a"
       gradientTransform="matrix(0.26423972,0,0,-0.23508661,0.152085,12.576766)"
       gradientUnits="userSpaceOnUse"
       x1="25.46862"
       x2="25.46862"
       y1="32.841259"
       y2="2.7235911">
      <stop
         offset="0"
         stop-color="#90dbec"
         id="stop2" />
      <stop
         offset=".26238"
         stop-color="#55c1ec"
         id="stop4" />
      <stop
         offset=".704952"
         stop-color="#3689e6"
         id="stop6" />
      <stop
         offset="1"
         stop-color="#2b63a0"
         id="stop8" />
    </linearGradient>
    <linearGradient
       id="b"
       gradientUnits="userSpaceOnUse"
       x1="5.8332348"
       x2="5.5941939"
       y1="2.5322831"
       y2="13.294995">
      <stop
         offset="0"
         stop-color="#fff"
         id="stop11" />
      <stop
         offset=".45000002"
         stop-color="#fff"
         stop-opacity=".235294"
         id="stop13" />
      <stop
         offset=".65000004"
         stop-color="#fff"
         stop-opacity=".156863"
         id="stop15" />
      <stop
         offset="1"
         stop-color="#fff"
         stop-opacity=".392157"
         id="stop17" />
    </linearGradient>
    <linearGradient
       inkscape:collect="always"
       xlink:href="#linearGradient3600-4-4"
       id="linearGradient938"
       gradientUnits="userSpaceOnUse"
       gradientTransform="matrix(0.25714449,0,0,0.23901336,3.8285322,2.897003)"
       x1="2.3263931"
       y1="20.131714"
       x2="40.819557"
       y2="19.640921" />
    <linearGradient
       inkscape:collect="always"
       xlink:href="#linearGradient3104-5-8"
       id="linearGradient940"
       gradientUnits="userSpaceOnUse"
       gradientTransform="matrix(0.20764335,0,0,0.2236809,19.105546,2.630629)"
       x1="-22.237694"
       y1="28.054304"
       x2="-70.397194"
       y2="29.123983" />
    <linearGradient
       inkscape:collect="always"
       xlink:href="#linearGradient3977-8"
       id="linearGradient942"
       gradientUnits="userSpaceOnUse"
       gradientTransform="matrix(0.18918906,0,0,0.24324323,5.4591875,3.162165)"
       x1="-1.0847725"
       y1="23.72127"
       x2="41.917679"
       y2="23.99999" />
  </defs>
  <metadata
     id="metadata3380">
    <rdf:RDF>
      <cc:Work
         rdf:about="">
        <dc:format>image/svg+xml</dc:format>
        <dc:type
           rdf:resource="http://purl.org/dc/dcmitype/StillImage" />
        <dc:title></dc:title>
      </cc:Work>
    </rdf:RDF>
  </metadata>
  <g
     transform="rotate(90,9.5000201,5.4999799)"
     id="g936">
    <path
       inkscape:connector-curvature="0"
       d="m 5.4999613,3.499961 c 2.0623745,0 9.0000667,7.12e-4 9.0000667,7.12e-4 l 1.2e-5,10.999366 c 0,0 -6.0000525,0 -9.0000787,0 0,-3.66669 0,-7.333378 0,-11.000067 z"
       id="path932"
       style="display:inline;fill:url(#linearGradient938);fill-opacity:1;stroke:url(#linearGradient940);stroke-width:0.99992192;stroke-linecap:butt;stroke-linejoin:round;stroke-miterlimit:4;stroke-dasharray:none;stroke-dashoffset:0;stroke-opacity:1" />
    <path
       inkscape:connector-curvature="0"
       d="m 13.5,13.5 h -7 v -9 h 7 z"
       id="path934"
       style="fill:none;stroke:url(#linearGradient942);stroke-width:1;stroke-linecap:round;stroke-linejoin:miter;stroke-miterlimit:4;stroke-dasharray:none;stroke-dashoffset:0;stroke-opacity:1" />
  </g>
  <g
     id="g923"
     transform="rotate(90,9.500001,9.5)">
    <path
       style="display:inline;fill:url(#linearGradient3072);fill-opacity:1;stroke:url(#linearGradient3074);stroke-width:0.99992192;stroke-linecap:butt;stroke-linejoin:round;stroke-miterlimit:4;stroke-dasharray:none;stroke-dashoffset:0;stroke-opacity:1"
       id="path4160-3-9"
       d="m 5.4999613,3.499961 c 2.0623745,0 9.0000667,7.12e-4 9.0000667,7.12e-4 l 1.2e-5,10.999366 c 0,0 -6.0000525,0 -9.0000787,0 0,-3.66669 0,-7.333378 0,-11.000067 z"
       inkscape:connector-curvature="0" />
    <path
       style="fill:none;stroke:url(#linearGradient3069);stroke-width:1;stroke-linecap:round;stroke-linejoin:miter;stroke-miterlimit:4;stroke-dasharray:none;stroke-dashoffset:0;stroke-opacity:1"
       id="rect6741-1-2"
       d="m 13.5,13.5 h -7 v -9 h 7 z"
       inkscape:connector-curvature="0" />
  </g>
  <path
     d="m 3.0026383,11.245895 a 4.0001608,2.7541062 0 1 1 8.0003217,0 4.0001608,2.7541062 0 0 1 -8.0003217,0 z"
     id="path3501"
     style="display:inline;overflow:visible;visibility:visible;opacity:0.14117647;fill:url(#radialGradient4123);fill-opacity:1;fill-rule:evenodd;stroke:none;stroke-width:1;marker:none" />
  <g
     id="g838"
     transform="translate(0.99999999,2.0000005)">
    <path
       id="path32"
       display="block"
       d="M 4.1972475,3.4812663 C 0.84208962,5.6461912 2.8574319,9.7986361 6.276183,9.7986361 V 11.518734 L 10.525857,8.3038727 6.276183,5.2978267 V 7.0981505 C 3.8641816,7.1875632 2.8097586,4.9918762 4.5340964,3.4812663 Z"
       style="display:block;fill:url(#a)"
       inkscape:connector-curvature="0" />
    <g
       id="g832">
      <path
         d="M 4.1501107,3.4072865 C 0.73450311,5.6120762 2.7861559,9.8409832 6.2665023,9.8409832 V 11.592754 L 10.592742,8.3186962 6.2665023,5.257297 V 7.0907718 C 3.811044,7.1818308 2.7376234,4.9457128 4.4930285,3.4072865 Z"
         id="path34"
         inkscape:connector-curvature="0"
         style="fill:none;stroke:#2f78c8;stroke-width:0.81457198;stroke-linecap:round;stroke-linejoin:round" />
      <path
         d="M 6.9830509,10.118644 9.3728814,8.338983 7,6.6440678 6.9661017,7.7118644 C 5.1604874,8.1349302 3.3649514,7.1203577 3.0847457,5.9322034 3.1623773,8.6571177 5.2310139,9.2770663 7,9.1355932 Z"
         id="path36"
         style="fill:none;stroke:url(#b);stroke-width:0.60000002"
         inkscape:connector-curvature="0" />
    </g>
  </g>
</svg>
